!!!COM: Claude Goudimel
!!!OMD: Psalm 133: O combien est plaisant et
**kern	**kern	**kern	**kern
*part4	*part3	*part2	*part1
*staff4	*staff3	*staff2	*staff1
*clefF4	*clefGv2	*clefG2	*clefG2
*k[f#c#]	*k[f#c#]	*k[f#c#]	*k[f#c#]
!!LO:TX:omd:t=
*M4/4	*M4/4	*M4/4	*M4/4
=1	=1	=1	=1
2D	2F#	2A	2d
2D	2A	2d	2f#
=2	=2	=2	=2
2AA	2A	2c#	2e
4D	4A	4d	4d
4F#	4F#	4c#	4a
=3	=3	=3	=3
4E	4G#X	4e	4b
4D	4A	4f#	4dd
4F#	4A	4f#	4cc#
4F#	4c#	4f#	4a
=4	=4	=4	=4
2E	2e	2g#X	2b
2AA	2e	2a	2a
=5	=5	=5	=5
2r	2r	2r	2r
2D	2f#	2a	2dd
=6	=6	=6	=6
4D	4f#	4a	4dd
4AA	4e	4a	4cc#
2D	2f#	2a	2dd
=7	=7	=7	=7
2D	2d	2f#	2a
4BB	4d	4f#	4b
4GG	4d	4g	4b
=8	=8	=8	=8
4D	4d	4f#	4a
4D	4d	4f#	4f#
2E	2B	2e	2g
=9	=9	=9	=9
2BB	2B	2e-X	2f#
2r	2r	2r	2r
=10	=10	=10	=10
2AA	2c#	2en	2a
2BB	2B	2d	2f#
=11	=11	=11	=11
2GG	2d	2g	2b
4D	4d	4f#	4a
4GG	4B	[4e	4g
=12	=12	=12	=12
2AA	2A	4e]	2f#
.	.	2d	.
2AA	2A	.	2e
.	.	4c#	.
=13	=13	=13	=13
2D	2A	2d	2d
2r	2r	2r	2r
=14	=14	=14	=14
2D	2F#	2A	2d
4BB	4B	4d	4f#
4E	4B	4e	4g
=15	=15	=15	=15
2D	2d	2f#	2a
2BB	2d	2f#	2b
=16	=16	=16	=16
4AA	4e	4a	4cc#
4D	4d	4f#	4a
4BB	4d	4g	4b
4AA	4e	4a	4cc#
=17	=17	=17	=17
2D	2f#	2a	2dd
2r	2r	2r	2r
=18	=18	=18	=18
2D	2f#	2a	2dd
4F#	4f#	4a	4cc#
4G	4d	4g	4b
=19	=19	=19	=19
2D	2d	2f#	2a
2D	2A	2d	2f#
=20	=20	=20	=20
4GG	4G	4d	4b
4GG	4d	4g	4b
4D	4d	4f#	4a
4E	4B	4e	4g#X
=21	=21	=21	=21
2D	2d	2f#	2a
2r	2r	2r	2r
=22	=22	=22	=22
2D	2F#	2A	2d
2D	2F#	2f#	2a
=23	=23	=23	=23
2GG	2G	2d	2b
4AA	4E	4c#	4a
4Cn	4E	[4e	4g
=24	=24	=24	=24
2D	2A	4e]	2f#
.	.	2d	.
2AA	2A	.	2e
.	.	4c#	.
=25	=25	=25	=25
1D	1A	1d	1d
==	==	==	==
*-	*-	*-	*-
!!!software: music21 v.9.7.1
!!!software: music21 v.8.3.0
!!!RDF**kern: > = above
!!!RDF**kern: < = below
